gnome-shell/src/data/icons/scalable/status/no-events-symbolic.svg

<?xml version="1.0" encoding="UTF-8" standalone="no"?>
<svg
   viewBox="0 0 64 64"
   version="1.1"
   id="svg8"
   sodipodi:docname="no-events-symbolic.svg"
   inkscape:version="1.2 (1:1.2.1+202207142221+cd75a1ee6d)"
   xmlns:inkscape="http://www.inkscape.org/namespaces/inkscape"
   xmlns:sodipodi="http://sodipodi.sourceforge.net/DTD/sodipodi-0.dtd"
   xmlns="http://www.w3.org/2000/svg"
   xmlns:svg="http://www.w3.org/2000/svg">
  <defs
     id="defs12" />
  <sodipodi:namedview
     id="namedview10"
     pagecolor="#ffffff"
     bordercolor="#666666"
     borderopacity="1.0"
     inkscape:showpageshadow="2"
     inkscape:pageopacity="0.0"
     inkscape:pagecheckerboard="0"
     inkscape:deskcolor="#d1d1d1"
     showgrid="true"
     inkscape:zoom="3.6875"
     inkscape:cx="-23.59322"
     inkscape:cy="0"
     inkscape:window-width="1920"
     inkscape:window-height="1043"
     inkscape:window-x="0"
     inkscape:window-y="0"
     inkscape:window-maximized="1"
     inkscape:current-layer="svg8">
    <inkscape:grid
       type="xygrid"
       id="grid753" />
  </sodipodi:namedview>
  <path
     id="path276"
     style="text-indent:0;text-decoration-line:none;text-decoration-style:solid;text-decoration-color:#000000;text-transform:none;white-space:normal;isolation:auto;mix-blend-mode:normal;fill:#b3b3b3;stroke-width:4"
     d="M 19.976562 0 L 19.976562 4 L 23.976562 4 L 23.976562 0 L 19.976562 0 z M 23.976562 4 L 23.976562 8 L 19.976562 8 L 19.976562 4 C 14.943768 4.0579999 11.261197 3.8775842 8.25 5.5390625 C 6.7444015 6.3697817 5.5494243 7.7767718 4.890625 9.53125 C 4.2334257 11.285728 4 13.369643 4 16 L 4 36 L 4 48 C 4 50.630357 4.2319857 52.714352 4.890625 54.46875 C 5.5490243 56.223228 6.7444015 57.622406 8.25 58.453125 C 11.261197 60.114523 14.944168 59.94184 19.976562 60 L 31.992188 60 L 31.992188 56 L 20.015625 56 L 19.976562 56 C 14.936968 55.9412 11.628861 55.761204 10.164062 54.953125 C 9.4308632 54.548405 9.0075871 54.102299 8.6171875 53.0625 C 8.2251879 52.022701 7.9765625 50.369558 7.9765625 48 L 7.9765625 36 L 7.9765625 28 C 7.9765625 25.630362 8.2289479 23.977099 8.6171875 22.9375 C 9.0091871 21.897581 9.4308632 21.451595 10.164062 21.046875 C 11.631261 20.237436 14.946005 20.05848 20 20 L 35.976562 20 L 43.976562 20 C 49.014557 20.0588 52.322711 20.239196 53.787109 21.046875 C 54.520709 21.451595 54.943585 21.897701 55.333984 22.9375 C 55.725984 23.977259 55.974609 28 55.974609 28 L 55.974609 36 L 56 36 L 56 48 C 56 50.369638 55.751215 52.022901 55.359375 53.0625 C 54.968975 54.102299 54.545699 54.548405 53.8125 54.953125 C 52.347701 55.761204 49.039595 55.9412 44 56 L 43.958984 56 L 31.998047 56 L 31.998047 60 L 43.998047 60 C 49.030442 59.942 52.713412 60.114403 55.724609 58.453125 C 57.230208 57.622406 58.425585 56.223228 59.083984 54.46875 C 59.743144 52.714232 59.974609 50.630397 59.974609 48 L 59.974609 36 L 59.974609 16 C 59.974609 13.369643 59.734611 11.285648 59.076172 9.53125 C 58.417373 7.7767718 57.230208 6.3697817 55.724609 5.5390625 C 52.713412 3.8776642 49.032795 4.0581599 44 4 L 44 8 L 40 8 L 40 4 L 43.976562 4 L 43.976562 0 L 39.976562 0 L 39.976562 4 L 23.976562 4 z M 15.976562 28 L 15.976562 36 L 23.976562 36 L 23.976562 28 L 15.976562 28 z M 27.976562 28 L 27.976562 36 L 35.976562 36 L 35.976562 28 L 27.976562 28 z M 39.976562 28 L 39.976562 36 L 47.976562 36 L 47.976562 28 L 39.976562 28 z M 15.976562 40 L 15.976562 48 L 23.976562 48 L 23.976562 40 L 15.976562 40 z M 27.976562 40 L 27.976562 48 L 35.976562 48 L 35.976562 40 L 27.976562 40 z " />
</svg>

<svg viewBox="0 0 64 64" xmlns="http://www.w3.org/2000/svg"><path style="text-indent:0;text-decoration-line:none;text-decoration-style:solid;text-decoration-color:#000;text-transform:none;white-space:normal;isolation:auto;mix-blend-mode:normal;fill:#b3b3b3;stroke-width:4" d="M19.977 0v4h4V0h-4zm4 4v4h-4V4c-5.033.058-8.716-.122-11.727 1.54-1.506.83-2.7 2.237-3.36 3.991C4.234 11.286 4 13.37 4 16v32c0 2.63.232 4.714.89 6.469.659 1.754 1.854 3.153 3.36 3.984 3.011 1.662 6.694 1.489 11.727 1.547h12.015v-4H19.976c-5.039-.059-8.347-.239-9.812-1.047-.733-.405-1.156-.85-1.547-1.89-.392-1.04-.64-2.693-.64-5.063V28c0-2.37.252-4.023.64-5.063.392-1.04.814-1.485 1.547-1.89 1.467-.81 4.782-.989 9.836-1.047h23.977c5.038.059 8.346.24 9.81 1.047.734.405 1.157.85 1.547 1.89.392 1.04.64 5.063.64 5.063v8H56v12c0 2.37-.249 4.023-.64 5.063s-.814 1.485-1.547 1.89c-1.465.808-4.773.988-9.813 1.047H31.998v4h12c5.032-.058 8.715.114 11.727-1.547 1.505-.83 2.7-2.23 3.359-3.984.66-1.755.89-3.839.89-6.469V16c0-2.63-.24-4.714-.898-6.469-.659-1.754-1.846-3.161-3.351-3.992C52.713 3.878 49.033 4.06 44 4v4h-4V4h3.977V0h-4v4h-16zm-8 24v8h8v-8h-8zm12 0v8h8v-8h-8zm12 0v8h8v-8h-8zm-24 12v8h8v-8h-8zm12 0v8h8v-8h-8z"/></svg>
